X:1
T:Sennele-ho-a-ho (voc) C-Dur
S:Naturjodel rund um den Saentis (www.roothuus-gonten.ch)
%%partsbox
%P:
Q:1/4=70   % (Metzler) ca. 94 (Kuratly)
R:Naturjodel
M:6/8
L:1/8
K:C %  (%%MIDI gchordon) 
EC/C/ GC/C/E2 | FB,/B,/ GB,/B,/F2 | FB,/B,/ GB,/B,/ FA | EC/C/ GC/C/E2 | 
w: Sen-ne-le ho-a-la ho   Sen-ne-le ho-a-la ho   Sen-ne-le ho-a-la ho-o  Sen-ne-le ho-a-la ho
EC/C/ GC/C/ EA | FB,/B,/ GB,/B,/F2 | FB,/B,/ GB,/B,/  AB,/B,/ | C3z C>D |]
w: Sen-ne-le ho-a-la ho-o  Sen-ne-le ho-a-la ho  Sen-ne-le ho-a-la ho-a-la ho  Rüef de 
Q:1/4=60
[M:3/4]
[P:B] E2C2 (3FED | E2C2 EA | G2B,2 FA | G2C2 C>D | E2C2 (3FED | E2C2 EA | G2B,G AB,/B,/ | C4z2 |] 
w: Bruu-ne rü-ef de Gee-lä, söl-id  all-sam söl-id  all-sam, rüef de  Bruu-ne rü-ef de Gee-lä, söl-id  all-sam in Stall i-nä   cho.
[P:C] "Jodel" CD | E>DC2 E/G/c/d/ | ec/A/G2 ce | fB/A/ G>B df | ec/A/G2 CD | 
w:Jo-lo  hol-di a   jo la u li u u-li u ju li   u u-li u u lu li   u u-li u jo lo 
E>DC2 E/G/c/d/ | ec/A/G2 ce | fB/A/ G>G Bd | c4 |]
w: hol-di a jo la u li  u u-li u ju li  u u-li u jo u li   u
[P:D]
[M:7/4] c3dB2 G>G A3B f2 | [M:6/4] e3cA2 G>G c>eg2 | f3BA2 G>G B>df2 | e3cA2 G>G c4 | 
w: ndu li du jo-li u li u   u li du ja-li u lu u  u li u ja-li u lu u  u li du ja-li u
[M:7/4] c3dB2 G>G A3B f2 | [M:6/4] e3cA2 G>G c>eg2 | f3BA2 Gf e2d2 |  c6 |]
w: ndu li du ja-li u li u   u li du ja-li u lu u  u li u jo lu u lü   u
W:
%W:Parts: ABCD
W: trad. Toggenburg
W: Toggenburger Kuhreihen mit Naturjodel (Nesslau)
W:nach Georg Kuratli und Jakob Metzler, JK Männertreu, Nesslau
W: Schallplatte Columbia SEVZ 510 "Chrüz und quer dur's Schwyzerland" Vol.6 (1957)
W:
W:Ursprünglich waren es nur Teile A-B  (Kuhreihen). 
W:  Georg Kuratli hat den Jodelteil C dazu gesungen.
W:Später kam von Jakob Metzler noch Teil D.
W:Bemerkenswert ist das unterschiedliche Tempo von Kuratli [ca.94] und Metzler [ca.70]
W:Wird zur Zeit meistens noch langsamer gesungen. 
W:
W:https://www.roothuus-gonten.ch/mediendateien/jodel/pdf/Sennele-ho-a-ho.pdf
W: *AUDIO*:  www.roothuus-gonten.ch/cms/index.php/de/naturjodel-rund-um-den-saentis
% © 2015 ROOTHUUS GONTEN. #198
% Feb. 23/24 2019

